X:1
T:The Well-Tempered Clavier Part I Fuga IX
T:BWV 854
T:J. S. Bach
%%score { ( 1 2 ) | 3 }
L:1/8
M:4/4
K:E
V:1 treble nm="Harp"
V:2 treble 
V:3 bass 
V:1
 z8 | z2 z B c2 z/ F/G/^A/ | B/^A/B/c/ d/e/f/d/ B/=A/B/c/ B/A/B/c/ | %3
 A/G/A/B/ A/G/A/B/ G/F/G/^A/ B2- | B2 ^A2 Bbdf | B4- BAGe | f2 z/ B/c/d/ e/d/e/f/ g/a/b/g/ | %7
 e/d/e/f/ e/d/e/f/ d/c/d/e/ f/g/a- | ad g2- gf/e/ d2 | e/d/e/f/ e/d/e/f/ d/c/d/e/ f2- | %10
 fe/d/ e2- e-edc | ^BG c2- cd G^A/B/ | c/^B/c/d/ e/f/g/e/ c/=B/c/d/ c/B/c/d/ | %13
 B/^A/B/c/ d/e/f/d/ B/=A/B/c/ B/A/B/c/ | A/G/A/B/ c/d/e/c/ d/c/d/e/ f/g/a/f/ | %15
 g/f/e/d/ c/B/A/G/ F/G/A/F/ DG | EGcB e/d/c/B/ A2- | ADAG c/B/A/G/ F2- | %18
 FE/D/ E/F/G/E/ C/G/F/E/ D z | z/ B,/C/D/ E/F/G/E/ c2 z/ F/G/^A/ | %20
 B/^A/B/c/ d/e/f/g/ =A/G/A/B/ A/G/A/B/ | G/F/G/A/ B/c/=d- dc/B/ c2- | c2 B2 z2 B2- | B2 A2 z2 A2- | %24
 A2 Ge f2 z/ B/c/d/ | e/d/e/f/ g/a/b/g/ a/g/a/b/ a/g/a/b/ | g/f/g/a/ g/f/e/d/ c/B/c/=d/ c/B/c/d/ | %27
 B/c/d/B/ e4 d2 | !fermata!e8 |] %29
V:2
 z2 z E F2 z/ B,/C/D/ | E/D/E/F/ G/A/B/G/ E/D/E/F/ E/D/E/F/ | D/C/D/E/ F/G/=A/F/ GB, E2 | %3
 ED F2- FB,ED | C4 B, z z2 | z eGB E F2[I:staff +1] E | %6
 E2 D[I:staff -1]F[I:staff +1] B,2[I:staff -1] z B | c2 z/ F/G/^A/ B/A/B/c/ d/e/f/d/ | %8
 B/A/B/c/ B/A/B/c/ A/G/A/B/ A/G/A/B/ | GE A4- A/^B/c/d/ | G3 c F4- | F2 EA DF ^B,D | %12
[I:staff +1] G,[I:staff -1] z z2 z2[I:staff +1] ^A,2- | A,2 G,2[I:staff -1] z2[I:staff +1] G,2- | %14
 G,2 F,2[I:staff -1] z2[I:staff +1] F,2- | F,2 E,C D2[I:staff -1] z/[I:staff +1] G,/^A,/^B,/ | %16
[I:staff -1] C/[I:staff +1]^B,/C/D/ E/F/G/E/ C/=B,/C/D/ C/B,/C/D/ | %17
 B,/G,/A,/B,/ C/D/E/C/ A,/G,/A,/B,/ A,/G,/A,/B,/ | %18
 G,/F,/G,/A,/ G,B,- B,A,/G,/ A,/[I:staff -1]C/B,/A,/ | G, z z2 z4 | %20
 z2 z[I:staff +1] E[I:staff -1] F2 z/ B,/C/D/ | E/D/E/F/ G/A/B/G/ E/D/E/F/ E/D/E/F/ | %22
 D/C/D/E/ F/G/A/F/ =D/C/D/E/ D/C/D/E/ | C/B,/C/D/ E/F/G/E/ C/B,/C/D/ C/B,/C/D/ | %24
 B,/A,/B,/[I:staff +1]C/ B,/A,/B,/C/ A,/G,/A,/B,/ A,/G,/A,/B,/ | G,B,E,G,- G,F,- F,2- | %26
 F,2 E,2 E,[I:staff -1]E A2- | A2 G/E/F/G/ A/B/c- c/c/B/A/ | G8 |] %29
V:3
 z8 | z8 | z z2 z4 E, | F,2 z/ B,,/C,/D,/ E,/D,/E,/F,/ G,/A,/B,/G,/ | %4
 E,/D,/E,/F,/ E,/D,/E,/F,/ D,/C,/D,/E,/ F,/G,/A,/F,/ | %5
 G,/F,/G,/A,/ B,/C/=D/B,/ C/B,/C/^D/ E/D/C/B,/ | A,/G,/A,/B,/ A,/G,/A,/B,/ G,F,E,D, | %7
 C,B,^A,F, B, z z2 | z4 z2 z B, | C2 z/ F,/G,/A,/ B,/A,/B,/C/ D/E/D/C/ | %10
 ^B,/G,/^A,/B,/ C/D/E/C/ =A,/G,/A,/=B,/ A,/G,/A,/B,/ | %11
 G,/E,/F,/G,/ A,/B,/C/A,/ F,/E,/F,/G,/ F,/E,/F,/G,/ | E,D,C,E, ^A,,G,^^F,D, | %13
 G,,^A,,B,,A,, G,,F,^E,C, | F,,G,,A,,G,, F,,E,D,C, | ^B,,G,,A,,E, F,/E,/F, G,G,, | C, z z2 z4 | %17
 z8 | z2 z E, F,2 z/ B,,/C,/D,/ | E,/D,/E,/F,/ G,/A,/B,/G,/ E,/D,/E,/F,/ E,/D,/E,/F,/ | %20
 D,F,B,,E,- E,D,/C,/ D,B, | C2 z G, A,G,A,E, | F,A,G,F, E,F,G,E, | A,B,CB, A,E,F,C, | %24
 D,B,, E,4 D,2- | D,2 C,2 F,,>C, D,B,, | E,B,,C,G,, A,,>E,, F,,C,, | D,,B, C2 z/ F,/G,/A,/ B,B,, | %28
 !fermata!E,,8 |] %29

